svg/device/vison_pro_line.svg

<?xml version="1.0" encoding="UTF-8"?>
<svg width="24px" height="24px" viewBox="0 0 24 24" version="1.1" xmlns="http://www.w3.org/2000/svg" xmlns:xlink="http://www.w3.org/1999/xlink">
    <title>vison_pro_line</title>
    <g id="Icon" stroke="none" stroke-width="1" fill="none" fill-rule="evenodd">
        <g id="Device" transform="translate(-480.000000, -384.000000)">
            <g id="vison_pro_line" transform="translate(480.000000, 384.000000)">
                <path d="M24,0 L24,24 L0,24 L0,0 L24,0 Z M12.5935,23.2578 L12.5819,23.2595 L12.5109,23.295 L12.4919,23.2987 L12.4767,23.295 L12.4057,23.2595 C12.3958,23.2564 12.387,23.259 12.3821,23.2649 L12.378,23.2758 L12.3609,23.7031 L12.3659,23.7235 L12.3769,23.7357 L12.4805,23.8097 L12.4953,23.8136 L12.5071,23.8097 L12.6107,23.7357 L12.6233,23.7197 L12.6267,23.7031 L12.6096,23.2758 C12.6076,23.2657 12.601,23.2593 12.5935,23.2578 Z M12.8584,23.1453 L12.8445,23.1473 L12.6598,23.2397 L12.6499,23.2499 L12.6472,23.2611 L12.6651,23.6906 L12.6699,23.7034 L12.6784,23.7105 L12.8793,23.8032 C12.8914,23.8069 12.9022,23.803 12.9078,23.7952 L12.9118,23.7812 L12.8777,23.1665 C12.8753,23.1546 12.8674,23.147 12.8584,23.1453 Z M12.143,23.1473 C12.1332,23.1424 12.1222,23.1453 12.1156,23.1526 L12.1099,23.1665 L12.0758,23.7812 C12.0751,23.7927 12.0828,23.8019 12.0926,23.8046 L12.1083,23.8032 L12.3092,23.7105 L12.3186,23.7024 L12.3225,23.6906 L12.3404,23.2611 L12.3372,23.2485 L12.3278,23.2397 L12.143,23.1473 Z" id="MingCute" fill-rule="nonzero"></path>
                <path d="M11.9999,8 C9.4745,8 7.35703,8.26761 5.69733,8.60168 C3.68213,9.0073 2.55029,11.0783 3.11426,13.3342 L3.23439,13.8147 C3.59765,15.2678 4.73218,16.4023 6.1852,16.7655 C6.66859,16.8864 7.17777,16.8518 7.64041,16.6668 L10.5144,15.5172 C11.468,15.1357 12.5319,15.1357 13.4855,15.5172 L16.3595,16.6668 C16.8221,16.8518 17.3313,16.8864 17.8147,16.7655 C19.2677,16.4023 20.4022,15.2678 20.7655,13.8147 L20.8856,13.3342 C21.4496,11.0783 20.3177,9.0073 18.3025,8.60168 C16.6428,8.26761 14.5254,8 11.9999,8 Z M5.30268,6.641 C7.08278,6.28269 9.33261,6 11.9999,6 C14.6673,6 16.9171,6.28269 18.6972,6.641 C22.0865,7.3232 23.599,10.7269 22.8259,13.8193 L22.7058,14.2998 C22.1634,16.4694 20.4693,18.1634 18.2997,18.7058 C17.4085,18.9286 16.4697,18.8649 15.6167,18.5237 L12.7427,17.3741 C12.2659,17.1834 11.734,17.1834 11.2572,17.3741 L8.38319,18.5237 C7.5302,18.8649 6.59139,18.9286 5.70013,18.7058 C3.53053,18.1634 1.83651,16.4694 1.29411,14.2998 L1.17398,13.8193 C0.400877,10.7269 1.91341,7.3232 5.30268,6.641 Z" id="形状" fill="#09244B"></path>
            </g>
        </g>
    </g>
</svg>

<svg xmlns="http://www.w3.org/2000/svg" width="24" height="24"><g fill="none" fill-rule="evenodd"><path d="M24 0v24H0V0h24ZM12.594 23.258l-.012.002-.071.035-.02.004-.014-.004-.071-.036c-.01-.003-.019 0-.024.006l-.004.01-.017.428.005.02.01.013.104.074.015.004.012-.004.104-.074.012-.016.004-.017-.017-.427c-.002-.01-.009-.017-.016-.018Zm.264-.113-.014.002-.184.093-.01.01-.003.011.018.43.005.012.008.008.201.092c.012.004.023 0 .029-.008l.004-.014-.034-.614c-.003-.012-.01-.02-.02-.022Zm-.715.002a.023.023 0 0 0-.027.006l-.006.014-.034.614c0 .012.007.02.017.024l.015-.002.201-.093.01-.008.003-.011.018-.43-.003-.012-.01-.01-.184-.092Z"/><path fill="#09244B" d="M12 8c-2.525 0-4.643.268-6.303.602-2.015.405-3.147 2.476-2.583 4.732l.12.48a4.055 4.055 0 0 0 2.951 2.951c.484.121.993.087 1.455-.098l2.874-1.15a4 4 0 0 1 2.972 0l2.874 1.15c.462.185.971.22 1.455.098a4.055 4.055 0 0 0 2.95-2.95l.12-.48c.565-2.257-.567-4.328-2.583-4.733C16.643 8.268 14.525 8 12 8ZM5.303 6.641C7.083 6.283 9.333 6 12 6s4.917.283 6.697.641c3.39.682 4.902 4.086 4.129 7.178l-.12.48a6.056 6.056 0 0 1-4.406 4.407 4.37 4.37 0 0 1-2.683-.182l-2.874-1.15a2 2 0 0 0-1.486 0l-2.874 1.15a4.37 4.37 0 0 1-2.683.182A6.055 6.055 0 0 1 1.294 14.3l-.12-.48c-.773-3.093.74-6.497 4.129-7.179Z"/></g></svg>
